public/images/icons/React.svg

<svg width="199" height="177" viewBox="0 0 199 177" fill="none" xmlns="http://www.w3.org/2000/svg">
<path d="M159.627 56.3922C172.704 60.003 185.035 65.7732 193.101 75.933C203.407 88.9248 194.665 103.014 182.334 109.988C174.682 114.307 166.544 117.929 157.921 120.856C157.491 120.995 157.13 121.292 156.912 121.686C156.694 122.081 156.636 122.543 156.748 122.98C159.567 133.505 160.373 144.137 159.165 154.875C155.824 184.93 125.832 175.903 110.765 163.088C107.59 160.397 104.333 157.908 100.993 155.618C100.516 155.294 99.9436 155.139 99.3644 155.178C98.7853 155.216 98.2329 155.446 97.7944 155.831C89.8818 162.864 81.8507 168.244 73.7012 171.973C55.5424 180.257 41.5769 172.186 39.5158 153.636C38.3787 143.405 39.7646 133.316 41.9323 123.44C42.335 121.552 41.6006 120.372 39.729 119.9C28.8551 117.115 19.4618 112.619 11.5492 106.412C-5.54345 93.0312 0.639762 75.5082 16.844 66.0918C24.2592 61.7966 32.1955 58.41 40.653 55.932C41.9796 55.5308 42.4653 54.6576 42.1099 53.3124C38.8407 41.1348 38.2958 29.4764 40.4753 18.3372C43.4603 3.11521 57.2482 -2.54879 71.1426 2.93821C80.6425 6.69061 89.1 12.4254 96.5151 20.1426C96.8786 20.5239 97.3159 20.8279 97.8011 21.0366C98.2863 21.2454 98.8095 21.3547 99.3397 21.358C99.8699 21.3613 100.396 21.2585 100.888 21.0558C101.379 20.8532 101.826 20.5547 102.201 20.178C110.398 11.8472 119.661 5.88821 129.99 2.30101C142.96 -2.19479 155.291 4.10641 158.241 17.4522C160.799 28.8864 159.733 40.9932 157.21 52.4274C156.76 54.5042 157.565 55.8258 159.627 56.3922ZM92.0732 27.5412C84.966 19.7532 66.2742 4.49581 55.0094 10.8678C43.6024 17.3106 47.1915 40.7808 49.8567 50.6574C50.2832 52.2622 51.3255 52.9348 52.9839 52.6752L74.5185 49.2768C75.9775 49.0506 77.2982 48.2789 78.2142 47.1174L92.1442 29.7006C92.7602 28.9454 92.7365 28.2256 92.0732 27.5412ZM144.062 11.1156C133.188 4.31881 113.537 20.178 106.998 27.612C106.684 27.9693 106.508 28.4279 106.501 28.9071C106.495 29.3862 106.658 29.8553 106.963 30.2316L121.39 47.5068C122.219 48.5216 123.285 49.1234 124.588 49.3122L146.656 52.569C147.158 52.6451 147.67 52.531 148.091 52.2491C148.512 51.9672 148.811 51.5382 148.93 51.0468C151.453 40.179 155.185 18.054 144.062 11.1156ZM89.7633 45.8076C89.5896 46.0185 89.4791 46.2739 89.4445 46.5446C89.4098 46.8152 89.4524 47.0901 89.5674 47.3377C89.6824 47.5853 89.8652 47.7956 90.0947 47.9445C90.3241 48.0933 90.5911 48.1748 90.8649 48.1794L108.313 48.2502C108.587 48.2456 108.854 48.1641 109.083 48.0153C109.313 47.8664 109.495 47.6561 109.61 47.4085C109.726 47.1609 109.768 46.886 109.733 46.6154C109.699 46.3447 109.588 46.0893 109.415 45.8784L100.744 35.754C100.607 35.5966 100.438 35.4703 100.248 35.3838C100.058 35.2973 99.8512 35.2525 99.6423 35.2525C99.4333 35.2525 99.2267 35.2973 99.0367 35.3838C98.8466 35.4703 98.6774 35.5966 98.5407 35.754L89.7633 45.8076ZM75.7623 110.342C77.7286 113.764 80.1332 116.549 82.976 118.696C83.6662 119.222 84.5188 119.497 85.3924 119.475L113.181 119.404C114.553 119.394 115.898 119.026 117.083 118.336C118.268 117.647 119.25 116.66 119.933 115.475L134.574 89.916C134.911 89.3348 135.088 88.6755 135.088 88.0044C135.088 87.3333 134.911 86.674 134.574 86.0928L119.151 59.3304C118.346 57.9616 117.161 57.2064 115.598 57.0648C104.629 56.0736 94.1461 56.05 84.1487 56.994C83.1296 57.0812 82.1448 57.4166 81.2784 57.9714C80.412 58.5263 79.6899 59.284 79.1737 60.18L64.3198 86.022C64.0133 86.5652 63.8463 87.1735 63.8339 87.7916C63.8214 88.4097 63.964 89.0182 64.2487 89.562C67.8733 96.3588 71.7112 103.285 75.7623 110.342ZM57.639 75.0834C57.7468 75.3735 57.9353 75.6271 58.1825 75.8144C58.4297 76.0017 58.7253 76.115 59.0347 76.141C59.3442 76.167 59.6547 76.1046 59.9298 75.9612C60.205 75.8178 60.4335 75.5993 60.5885 75.3312L68.9749 61.0296C69.1351 60.763 69.2153 60.4562 69.2062 60.1456C69.197 59.835 69.0989 59.5335 68.9233 59.2767C68.7477 59.0199 68.502 58.8185 68.2152 58.6963C67.9284 58.5741 67.6125 58.5362 67.3048 58.587L54.4764 60.7464C54.239 60.7843 54.013 60.8739 53.8144 61.0087C53.6158 61.1436 53.4495 61.3204 53.3273 61.5266C53.2052 61.7328 53.1302 61.9633 53.1077 62.2017C53.0851 62.4401 53.1157 62.6805 53.1971 62.9058L57.639 75.0834ZM130.843 58.587C130.608 58.5517 130.368 58.5841 130.151 58.6802C129.935 58.7763 129.75 58.9321 129.619 59.1294C129.488 59.3266 129.417 59.557 129.413 59.7933C129.41 60.0297 129.474 60.2621 129.599 60.4632L138.945 75.8268C139.068 76.0277 139.246 76.1894 139.459 76.293C139.671 76.3967 139.908 76.4379 140.143 76.4119C140.378 76.3859 140.601 76.2937 140.785 76.1462C140.969 75.9987 141.107 75.802 141.184 75.579L145.839 62.2686C145.898 62.0965 145.919 61.9135 145.899 61.7325C145.879 61.5516 145.82 61.3772 145.725 61.2218C145.63 61.0663 145.502 60.9336 145.349 60.8331C145.197 60.7326 145.024 60.6667 144.844 60.6402L130.843 58.587ZM9.59476 90.5178C16.2399 102.979 28.3576 107.191 41.8257 112.076C43.6261 112.737 44.858 112.171 45.5214 110.377L52.664 91.332C53.5119 89.0515 53.4993 86.5472 52.6285 84.2874L45.2726 65.49C45.1055 65.054 44.7894 64.6907 44.3799 64.4641C43.9704 64.2374 43.4937 64.162 43.0339 64.251C30.4898 66.8706 14.3565 74.1276 9.38155 86.7654C9.14714 87.3761 9.0449 88.0269 9.08167 88.674C9.11844 89.3212 9.29338 89.9498 9.59476 90.5178ZM145.839 90.447L153.728 110.696C154.225 111.947 155.137 112.407 156.464 112.076C166.603 109.551 175.547 105.091 183.293 98.6952C203.513 81.9864 167.338 66.6936 156.357 64.074C155.839 63.945 155.292 64.011 154.82 64.2592C154.348 64.5074 153.984 64.9205 153.799 65.4192L145.839 85.6326C145.221 87.1785 145.221 88.9011 145.839 90.447ZM141.184 100.43C141.113 100.197 140.975 99.9909 140.788 99.8359C140.6 99.6808 140.371 99.5841 140.129 99.5577C139.886 99.5313 139.641 99.5764 139.425 99.6874C139.208 99.7984 139.029 99.9704 138.909 100.182L129.279 116.147C129.151 116.351 129.085 116.588 129.09 116.828C129.094 117.068 129.169 117.302 129.304 117.501C129.44 117.7 129.631 117.855 129.853 117.948C130.076 118.041 130.321 118.067 130.558 118.024L144.488 115.475C144.662 115.443 144.826 115.375 144.971 115.274C145.116 115.174 145.238 115.045 145.329 114.894C145.42 114.743 145.477 114.575 145.498 114.401C145.518 114.226 145.501 114.049 145.448 113.882L141.184 100.43ZM68.0865 117.634C68.3239 117.678 68.5689 117.652 68.7915 117.559C69.0142 117.466 69.205 117.311 69.3406 117.112C69.4762 116.913 69.5508 116.679 69.5553 116.439C69.5598 116.198 69.494 115.962 69.3658 115.758L59.8778 100.147C59.7517 99.9464 59.5708 99.7864 59.3564 99.6853C59.1419 99.5842 58.903 99.5463 58.6677 99.5761C58.4323 99.6059 58.2104 99.702 58.0282 99.8533C57.8459 100.005 57.7109 100.205 57.639 100.43L53.5524 113.563C53.4991 113.731 53.4821 113.908 53.5027 114.082C53.5232 114.257 53.5807 114.425 53.6715 114.575C53.7622 114.726 53.8841 114.856 54.029 114.956C54.1739 115.056 54.3385 115.124 54.5119 115.156L68.0865 117.634ZM68.7973 165.07C77.5864 161.129 85.2029 155.866 91.6467 149.282C92.6891 148.196 92.7483 147.075 91.8244 145.919L78.6407 129.635C77.5272 128.219 76.0821 127.369 74.3053 127.086L53.2326 123.511C52.4957 123.388 51.74 123.541 51.115 123.941C50.4899 124.341 50.0409 124.958 49.8567 125.67C46.8007 137.352 42.2166 176.929 68.7973 165.07ZM145.945 123.794C138.945 124.997 123.131 125.104 118.725 131.122C114.887 136.408 111.026 141.364 107.14 145.99C106.704 146.508 106.48 147.172 106.513 147.847C106.546 148.523 106.834 149.162 107.318 149.636C114.354 156.669 122.622 162.108 132.122 165.955C141.503 169.778 149.89 163.902 150.92 154.167C151.915 144.656 151.311 135.228 149.108 125.882C148.705 124.207 147.651 123.511 145.945 123.794ZM109.592 129.67C109.709 129.515 109.782 129.33 109.801 129.137C109.82 128.944 109.786 128.749 109.701 128.574C109.617 128.398 109.486 128.249 109.323 128.143C109.159 128.037 108.97 127.977 108.775 127.971L89.941 127.794C89.7333 127.79 89.5288 127.846 89.3526 127.955C89.1765 128.065 89.0364 128.224 88.9496 128.412C88.8627 128.6 88.833 128.809 88.8639 129.014C88.8948 129.219 88.9851 129.41 89.1237 129.564L98.6828 141.034C98.7829 141.153 98.9079 141.248 99.0491 141.314C99.1903 141.38 99.3443 141.414 99.5001 141.414C99.656 141.414 99.8099 141.38 99.9511 141.314C100.092 141.248 100.217 141.153 100.317 141.034L109.592 129.67Z" fill="#00D8FF"/>
<path d="M99.3935 105.527C109.01 105.527 116.806 97.7613 116.806 88.1814C116.806 78.6015 109.01 70.8354 99.3935 70.8354C89.7768 70.8354 81.981 78.6015 81.981 88.1814C81.981 97.7613 89.7768 105.527 99.3935 105.527Z" fill="#00D8FF"/>
</svg>

<svg width="199" height="177" fill="none" xmlns="http://www.w3.org/2000/svg"><path d="M159.627 56.392c13.077 3.611 25.408 9.381 33.474 19.541 10.306 12.992 1.564 27.081-10.767 34.055-7.652 4.319-15.79 7.941-24.413 10.868a1.767 1.767 0 0 0-1.173 2.124c2.819 10.525 3.625 21.157 2.417 31.895-3.341 30.055-33.333 21.028-48.4 8.213a120.495 120.495 0 0 0-9.772-7.47 2.586 2.586 0 0 0-1.629-.44 2.644 2.644 0 0 0-1.57.653c-7.912 7.033-15.943 12.413-24.093 16.142-18.159 8.284-32.124.213-34.185-18.337-1.137-10.231.249-20.32 2.416-30.196.403-1.888-.331-3.068-2.203-3.54-10.874-2.785-20.267-7.281-28.18-13.488-17.092-13.38-10.91-30.904 5.295-40.32 7.415-4.295 15.352-7.682 23.809-10.16 1.327-.401 1.812-1.274 1.457-2.62-3.27-12.177-3.814-23.836-1.635-34.975C43.46 3.115 57.248-2.549 71.143 2.938c9.5 3.753 17.957 9.487 25.372 17.205.364.38.8.685 1.286.894a3.954 3.954 0 0 0 1.539.321 3.999 3.999 0 0 0 2.861-1.18c8.197-8.33 17.46-14.29 27.789-17.877 12.97-4.496 25.301 1.805 28.251 15.151 2.558 11.434 1.492 23.541-1.031 34.975-.45 2.077.355 3.399 2.417 3.965Zm-67.554-28.85C84.966 19.752 66.274 4.495 55.01 10.867c-11.407 6.443-7.818 29.913-5.152 39.79.426 1.604 1.468 2.277 3.127 2.017l21.535-3.398a5.85 5.85 0 0 0 3.695-2.16l13.93-17.416c.616-.756.593-1.475-.07-2.16Zm51.989-16.426c-10.874-6.797-30.525 9.062-37.064 16.496-.314.357-.49.816-.497 1.295-.006.48.157.948.462 1.325l14.427 17.275c.829 1.015 1.895 1.616 3.198 1.805l22.068 3.257a2.032 2.032 0 0 0 1.435-.32c.421-.282.72-.71.839-1.202 2.523-10.868 6.255-32.993-4.868-39.931ZM89.763 45.808a1.448 1.448 0 0 0 .332 2.136c.23.15.496.23.77.235l17.448.071a1.458 1.458 0 0 0 1.297-.842 1.448 1.448 0 0 0-.195-1.53l-8.671-10.124a1.46 1.46 0 0 0-2.203 0l-8.778 10.054Zm-14 64.534c1.966 3.422 4.37 6.207 7.213 8.354.69.526 1.543.801 2.416.779l27.789-.071a7.868 7.868 0 0 0 6.752-3.929l14.641-25.559a3.81 3.81 0 0 0 0-3.823L119.151 59.33c-.805-1.368-1.99-2.124-3.553-2.265-10.969-.991-21.452-1.015-31.45-.071a6.323 6.323 0 0 0-2.87.977 6.438 6.438 0 0 0-2.104 2.209L64.32 86.022a3.756 3.756 0 0 0-.486 1.77c-.013.618.13 1.226.415 1.77a761.67 761.67 0 0 0 11.513 20.78ZM57.638 75.083a1.63 1.63 0 0 0 1.396 1.058 1.64 1.64 0 0 0 1.554-.81l8.386-14.301a1.624 1.624 0 0 0-.76-2.334 1.641 1.641 0 0 0-.91-.109l-12.829 2.16a1.639 1.639 0 0 0-1.149.78 1.625 1.625 0 0 0-.13 1.379l4.442 12.177Zm73.204-16.496a1.25 1.25 0 0 0-1.224.542 1.237 1.237 0 0 0-.02 1.334l9.346 15.364a1.244 1.244 0 0 0 2.239-.248l4.655-13.31a1.235 1.235 0 0 0-.49-1.436 1.246 1.246 0 0 0-.505-.193l-14.001-2.053ZM9.595 90.517c6.645 12.462 18.763 16.674 32.23 21.559 1.801.661 3.033.095 3.696-1.699l7.143-19.045a9.947 9.947 0 0 0-.035-7.045L45.273 65.49a1.996 1.996 0 0 0-2.239-1.239c-12.544 2.62-28.678 9.877-33.652 22.514a4.6 4.6 0 0 0-.3 1.909c.036.647.211 1.276.513 1.844Zm136.244-.07 7.889 20.249c.497 1.251 1.409 1.711 2.736 1.38 10.139-2.525 19.083-6.985 26.829-13.38 20.22-16.71-15.955-32.002-26.936-34.622a2.174 2.174 0 0 0-2.558 1.345l-7.96 20.214a6.483 6.483 0 0 0 0 4.814Zm-4.655 9.983a1.242 1.242 0 0 0-1.759-.743 1.245 1.245 0 0 0-.516.495l-9.63 15.965a1.234 1.234 0 0 0 .025 1.354 1.25 1.25 0 0 0 1.254.523l13.93-2.549a1.237 1.237 0 0 0 .96-1.593l-4.264-13.452Zm-73.097 17.204a1.242 1.242 0 0 0 1.279-1.876l-9.488-15.611a1.24 1.24 0 0 0-1.21-.57 1.246 1.246 0 0 0-1.029.853l-4.087 13.133a1.236 1.236 0 0 0 .96 1.593l13.575 2.478Zm.71 47.436c8.79-3.941 16.406-9.204 22.85-15.788 1.042-1.086 1.101-2.207.177-3.363l-13.183-16.284c-1.114-1.416-2.559-2.266-4.336-2.549l-21.072-3.575a3.01 3.01 0 0 0-2.118.43 2.924 2.924 0 0 0-1.258 1.729c-3.056 11.682-7.64 51.259 18.94 39.4Zm77.148-41.276c-7 1.203-22.814 1.31-27.22 7.328-3.838 5.286-7.699 10.242-11.585 14.868a2.682 2.682 0 0 0 .178 3.646c7.036 7.033 15.304 12.472 24.804 16.319 9.381 3.823 17.768-2.053 18.798-11.788.995-9.511.391-18.939-1.812-28.285-.403-1.675-1.457-2.371-3.163-2.088Zm-36.353 5.876a1.06 1.06 0 0 0-.817-1.699l-18.834-.177a1.066 1.066 0 0 0-1.077 1.22c.03.205.121.396.26.55l9.559 11.47a1.07 1.07 0 0 0 1.634 0l9.275-11.364Z" fill="#00D8FF"/><path d="M99.394 105.527c9.616 0 17.412-7.766 17.412-17.346s-7.796-17.346-17.412-17.346c-9.617 0-17.413 7.767-17.413 17.346 0 9.58 7.796 17.346 17.413 17.346Z" fill="#00D8FF"/></svg>
